X: 42409
T: West Clare, The
R: reel
M: 4/4
K: Dminor
DE|F2DE FA{=B/}AA|AEGF DCA,2|F2DE FA{=B/}AA|AEGF D3E|
F2DE FA{=B/}AA|AEGF DCA,2|d/d/cAG FGAB|AEGF D3|
|:d|dcAG F/F/GAd|dcAG F/F/GE2|fgef dcAB|AEGF D3:|

